X:2
T:Carrickfergus
C:Trad. Irish
M:4/4
K:G
z2zgg2f2|:"Am"e3AA4|"D"z2zA (3::A2B2d2|"G"B3GG4|
"Em"z2G2A2B2|"Am"c3AA4|"D"z2z GG2A2|1"G"B4|z2zgg2f2:|2"G"G8||
z2zdd2d2|"G"g8|z2gab2c'b|"D"a3dd4|z2zdd2d2|"G"g3ab4|
"Em"z2zbc'2b2|"Am"a8|"D"z2zgg2f2|"Am"e3AA4|z4B2d2|
"G"B3GG4|"Em"z2zGA2B2|"Am"c3AA4|"D"zz2GG2F2|"G"G8|]
